static/img/kroki/11fb665f6768f2182ee4912a2862db6b.svg

<?xml version="1.0" encoding="us-ascii" standalone="no"?><svg xmlns="http://www.w3.org/2000/svg" xmlns:xlink="http://www.w3.org/1999/xlink" contentStyleType="text/css" height="919px" preserveAspectRatio="none" style="width:278px;height:919px;" version="1.1" viewBox="0 0 278 919" width="278px" zoomAndPan="magnify"><defs/><g><!--class azure_usage--><g id="elem_azure_usage"><rect codeLine="23" fill="#3D176E" height="152.9766" id="azure_usage" rx="2.5" ry="2.5" style="stroke:#000D19;stroke-width:0.5;" width="264" x="7" y="599.55"/><ellipse cx="77.75" cy="619.4445" fill="#ADD1B2" rx="11" ry="11" style="stroke:#181818;stroke-width:1.0;"/><path d="M80.7188,625.0852 Q80.1406,625.382 79.5,625.5227 Q78.8594,625.6789 78.1563,625.6789 Q75.6563,625.6789 74.3281,624.0383 Q73.0156,622.382 73.0156,619.257 Q73.0156,616.132 74.3281,614.4758 Q75.6563,612.8195 78.1563,612.8195 Q78.8594,612.8195 79.5,612.9758 Q80.1563,613.132 80.7188,613.4289 L80.7188,616.1477 Q80.0938,615.5695 79.5,615.3039 Q78.9063,615.0227 78.2813,615.0227 Q76.9375,615.0227 76.25,616.1008 Q75.5625,617.1633 75.5625,619.257 Q75.5625,621.3508 76.25,622.4289 Q76.9375,623.4914 78.2813,623.4914 Q78.9063,623.4914 79.5,623.2258 Q80.0938,622.9445 80.7188,622.3664 L80.7188,625.0852 Z " fill="#000000"/><text fill="#D9B8FF" font-family="Helvetica" font-size="17" lengthAdjust="spacing" textLength="104" x="103.25" y="625.3298">azure_usage</text><line style="stroke:#000D19;stroke-width:0.5;" x1="8" x2="270" y1="639.3391" y2="639.3391"/><text fill="#D9B8FF" font-family="sans-serif" font-size="14" font-weight="bold" lengthAdjust="spacing" textLength="108" x="18" y="661.3342">current_value</text><text fill="#D9B8FF" font-family="sans-serif" font-size="14" lengthAdjust="spacing" textLength="44" x="126" y="661.3342">: int64</text><text fill="#D9B8FF" font-family="sans-serif" font-size="14" font-weight="bold" lengthAdjust="spacing" textLength="32" x="18" y="687.6311">limit</text><text fill="#D9B8FF" font-family="sans-serif" font-size="14" lengthAdjust="spacing" textLength="44" x="50" y="687.6311">: int64</text><text fill="#D9B8FF" font-family="sans-serif" font-size="14" font-weight="bold" lengthAdjust="spacing" textLength="30" x="18" y="713.9279">unit</text><text fill="#D9B8FF" font-family="sans-serif" font-size="14" lengthAdjust="spacing" textLength="48" x="48" y="713.9279">: string</text><text fill="#D9B8FF" font-family="sans-serif" font-size="14" font-weight="bold" lengthAdjust="spacing" textLength="98" x="18" y="740.2248">usage_name</text><text fill="#D9B8FF" font-family="sans-serif" font-size="14" lengthAdjust="spacing" textLength="144" x="116" y="740.2248">: azure_usage_name</text></g><!--class azure_usage_name--><g id="elem_azure_usage_name"><rect codeLine="29" fill="#3D176E" height="100.3828" id="azure_usage_name" rx="2.5" ry="2.5" style="stroke:#000D19;stroke-width:0.5;" width="203" x="37.5" y="812.53"/><ellipse cx="52.5" cy="832.4245" fill="#ADD1B2" rx="11" ry="11" style="stroke:#181818;stroke-width:1.0;"/><path d="M55.4688,838.0652 Q54.8906,838.362 54.25,838.5027 Q53.6094,838.6589 52.9063,838.6589 Q50.4063,838.6589 49.0781,837.0183 Q47.7656,835.362 47.7656,832.237 Q47.7656,829.112 49.0781,827.4558 Q50.4063,825.7995 52.9063,825.7995 Q53.6094,825.7995 54.25,825.9558 Q54.9063,826.112 55.4688,826.4089 L55.4688,829.1277 Q54.8438,828.5495 54.25,828.2839 Q53.6563,828.0027 53.0313,828.0027 Q51.6875,828.0027 51,829.0808 Q50.3125,830.1433 50.3125,832.237 Q50.3125,834.3308 51,835.4089 Q51.6875,836.4714 53.0313,836.4714 Q53.6563,836.4714 54.25,836.2058 Q54.8438,835.9245 55.4688,835.3464 L55.4688,838.0652 Z " fill="#000000"/><text fill="#D9B8FF" font-family="Helvetica" font-size="17" lengthAdjust="spacing" textLength="161" x="71.5" y="838.3098">azure_usage_name</text><line style="stroke:#000D19;stroke-width:0.5;" x1="38.5" x2="239.5" y1="852.3191" y2="852.3191"/><text fill="#D9B8FF" font-family="sans-serif" font-size="14" font-weight="bold" lengthAdjust="spacing" textLength="118" x="48.5" y="874.3142">localized_value</text><text fill="#D9B8FF" font-family="sans-serif" font-size="14" lengthAdjust="spacing" textLength="48" x="166.5" y="874.3142">: string</text><text fill="#D9B8FF" font-family="sans-serif" font-size="14" font-weight="bold" lengthAdjust="spacing" textLength="42" x="48.5" y="900.6111">value</text><text fill="#D9B8FF" font-family="sans-serif" font-size="14" lengthAdjust="spacing" textLength="48" x="90.5" y="900.6111">: string</text></g><!--class phantom_resource--><g id="elem_phantom_resource"><rect codeLine="33" fill="#3D176E" height="39.7891" id="phantom_resource" rx="2.5" ry="2.5" style="stroke:#000D19;stroke-width:0.5;" width="198" x="40" y="438.76"/><ellipse cx="55" cy="458.6545" fill="#ADD1B2" rx="11" ry="11" style="stroke:#181818;stroke-width:1.0;"/><path d="M57.9688,464.2952 Q57.3906,464.592 56.75,464.7327 Q56.1094,464.8889 55.4063,464.8889 Q52.9063,464.8889 51.5781,463.2483 Q50.2656,461.592 50.2656,458.467 Q50.2656,455.342 51.5781,453.6858 Q52.9063,452.0295 55.4063,452.0295 Q56.1094,452.0295 56.75,452.1858 Q57.4063,452.342 57.9688,452.6389 L57.9688,455.3577 Q57.3438,454.7795 56.75,454.5139 Q56.1563,454.2327 55.5313,454.2327 Q54.1875,454.2327 53.5,455.3108 Q52.8125,456.3733 52.8125,458.467 Q52.8125,460.5608 53.5,461.6389 Q54.1875,462.7014 55.5313,462.7014 Q56.1563,462.7014 56.75,462.4358 Q57.3438,462.1545 57.9688,461.5764 L57.9688,464.2952 Z " fill="#000000"/><text fill="#D9B8FF" font-family="Helvetica" font-size="17" lengthAdjust="spacing" textLength="156" x="74" y="464.5398">phantom_resource</text></g><!--class resource--><g id="elem_resource"><rect codeLine="36" fill="#3D176E" height="310.7578" id="resource" rx="2.5" ry="2.5" style="stroke:#000D19;stroke-width:0.5;" width="227" x="25.5" y="7"/><ellipse cx="94.25" cy="26.8945" fill="#ADD1B2" rx="11" ry="11" style="stroke:#181818;stroke-width:1.0;"/><path d="M97.2188,32.5352 Q96.6406,32.832 96,32.9727 Q95.3594,33.1289 94.6563,33.1289 Q92.1563,33.1289 90.8281,31.4883 Q89.5156,29.832 89.5156,26.707 Q89.5156,23.582 90.8281,21.9258 Q92.1563,20.2695 94.6563,20.2695 Q95.3594,20.2695 96,20.4258 Q96.6563,20.582 97.2188,20.8789 L97.2188,23.5977 Q96.5938,23.0195 96,22.7539 Q95.4063,22.4727 94.7813,22.4727 Q93.4375,22.4727 92.75,23.5508 Q92.0625,24.6133 92.0625,26.707 Q92.0625,28.8008 92.75,29.8789 Q93.4375,30.9414 94.7813,30.9414 Q95.4063,30.9414 96,30.6758 Q96.5938,30.3945 97.2188,29.8164 L97.2188,32.5352 Z " fill="#000000"/><text fill="#D9B8FF" font-family="Helvetica" font-size="17" lengthAdjust="spacing" textLength="71" x="119.75" y="32.7798">resource</text><line style="stroke:#000D19;stroke-width:0.5;" x1="26.5" x2="251.5" y1="46.7891" y2="46.7891"/><text fill="#D9B8FF" font-family="sans-serif" font-size="14" font-weight="bold" lengthAdjust="spacing" textLength="29" x="36.5" y="68.7842">age</text><text fill="#D9B8FF" font-family="sans-serif" font-size="14" lengthAdjust="spacing" textLength="66" x="65.5" y="68.7842">: duration</text><text fill="#D9B8FF" font-family="sans-serif" font-size="14" font-weight="bold" lengthAdjust="spacing" textLength="43" x="36.5" y="95.0811">atime</text><text fill="#D9B8FF" font-family="sans-serif" font-size="14" lengthAdjust="spacing" textLength="70" x="79.5" y="95.0811">: datetime</text><text fill="#D9B8FF" font-family="sans-serif" font-size="14" font-weight="bold" lengthAdjust="spacing" textLength="43" x="36.5" y="121.3779">ctime</text><text fill="#D9B8FF" font-family="sans-serif" font-size="14" lengthAdjust="spacing" textLength="70" x="79.5" y="121.3779">: datetime</text><text fill="#D9B8FF" font-family="sans-serif" font-size="14" font-weight="bold" lengthAdjust="spacing" textLength="14" x="36.5" y="147.6748">id</text><text fill="#D9B8FF" font-family="sans-serif" font-size="14" lengthAdjust="spacing" textLength="48" x="50.5" y="147.6748">: string</text><text fill="#D9B8FF" font-family="sans-serif" font-size="14" font-weight="bold" lengthAdjust="spacing" textLength="33" x="36.5" y="173.9717">kind</text><text fill="#D9B8FF" font-family="sans-serif" font-size="14" lengthAdjust="spacing" textLength="48" x="69.5" y="173.9717">: string</text><text fill="#D9B8FF" font-family="sans-serif" font-size="14" font-weight="bold" lengthAdjust="spacing" textLength="90" x="36.5" y="200.2686">last_access</text><text fill="#D9B8FF" font-family="sans-serif" font-size="14" lengthAdjust="spacing" textLength="66" x="126.5" y="200.2686">: duration</text><text fill="#D9B8FF" font-family="sans-serif" font-size="14" font-weight="bold" lengthAdjust="spacing" textLength="90" x="36.5" y="226.5654">last_update</text><text fill="#D9B8FF" font-family="sans-serif" font-size="14" lengthAdjust="spacing" textLength="66" x="126.5" y="226.5654">: duration</text><text fill="#D9B8FF" font-family="sans-serif" font-size="14" font-weight="bold" lengthAdjust="spacing" textLength="48" x="36.5" y="252.8623">mtime</text><text fill="#D9B8FF" font-family="sans-serif" font-size="14" lengthAdjust="spacing" textLength="70" x="84.5" y="252.8623">: datetime</text><text fill="#D9B8FF" font-family="sans-serif" font-size="14" font-weight="bold" lengthAdjust="spacing" textLength="43" x="36.5" y="279.1592">name</text><text fill="#D9B8FF" font-family="sans-serif" font-size="14" lengthAdjust="spacing" textLength="48" x="79.5" y="279.1592">: string</text><text fill="#D9B8FF" font-family="sans-serif" font-size="14" font-weight="bold" lengthAdjust="spacing" textLength="34" x="36.5" y="305.4561">tags</text><text fill="#D9B8FF" font-family="sans-serif" font-size="14" lengthAdjust="spacing" textLength="171" x="70.5" y="305.4561">: dictionary[string, string]</text></g><!--link azure_usage to azure_usage_name--><g id="link_azure_usage_azure_usage_name"><path codeLine="48" d="M139,752.95 C139,772.95 139,788.01 139,806.22 " fill="none" id="azure_usage-to-azure_usage_name" style="stroke:#FFAF37;stroke-width:2.0;"/><polygon fill="#FFAF37" points="139,812.22,143,803.22,139,807.22,135,803.22,139,812.22" style="stroke:#FFAF37;stroke-width:2.0;"/></g><!--reverse link phantom_resource to azure_usage--><g id="link_phantom_resource_azure_usage"><path codeLine="49" d="M139,496.77 C139,523.64 139,556.12 139,599.15 " fill="none" id="phantom_resource-backto-azure_usage" style="stroke:#FFAF37;stroke-width:2.0;"/><polygon fill="none" points="139,478.77,133,496.77,145,496.77,139,478.77" style="stroke:#FFAF37;stroke-width:2.0;"/></g><!--reverse link resource to phantom_resource--><g id="link_resource_phantom_resource"><path codeLine="50" d="M139,335.84 C139,384.13 139,413.37 139,438.68 " fill="none" id="resource-backto-phantom_resource" style="stroke:#FFAF37;stroke-width:2.0;"/><polygon fill="none" points="139,317.84,133,335.84,145,335.84,139,317.84" style="stroke:#FFAF37;stroke-width:2.0;"/></g><!--SRC=[XLFHQjim57ttLmZwPcP8rgrfHYbqWR6zbB7kRHHp8rqx8hPahgvRqct_FibkCaLEspVxdADpphsoDrgXmBRZdMYnNIEvp6srwO2W5JT4zd5b6qlYhAgWEb-av1Th-4t1BRGelcBpWAmbf8gV6ost1fqJxoFgCyXjJROtQhHd0kCyXOOZrQe1vswOIQzxngYCMgulgofLfgPdvsg-kC29p992UfRCPZCrNwQIDwDUdVkWkDDFAERnqcujuwJc969GlTeoAAAIaq7t_8iTluDIsjJYOuJz63kHGJh2xpQWx6DGLz2uECOn4bhUTRYQJ8NBIrKjJeg_lIJEP5YTWAUUiEmTr2X-PtakUmfVHla0JOzv_abemnSVFD7eLdCCz6PyT_wRCNK0Wabf_1e271aFMFPtcZWGGsnZ9JJ-2jN_u8DlYkoDkWqOjcr9w6nFCXWTk0ZBSvyKZgkUWBKr0M4zjbJ069x3v2SmhOwQ-FqU0pwBIv3I_tD9mi3qNV1AcFP4pdvf1sE6UdJKCXm3slqQkNVFcdi_QdntHN4zNVbaGrT_YgA8TLb2fIUoVm00]--></g></svg>

<svg xmlns="http://www.w3.org/2000/svg" width="278" height="919" viewBox="0 0 278 919"><rect width="264" height="152.977" x="7" y="599.55" fill="#3D176E" rx="2.5" ry="2.5" style="stroke:#000d19;stroke-width:.5"/><circle cx="77.75" cy="619.444" r="11" fill="#ADD1B2" style="stroke:#181818;stroke-width:1"/><path d="M80.719 625.085q-.578.297-1.219.438-.64.156-1.344.156-2.5 0-3.828-1.64-1.312-1.657-1.312-4.782t1.312-4.781q1.328-1.657 3.828-1.657.703 0 1.344.157.656.156 1.219.453v2.719q-.625-.579-1.219-.844-.594-.281-1.219-.281-1.344 0-2.031 1.078-.687 1.062-.687 3.156t.687 3.172q.688 1.062 2.031 1.062.625 0 1.219-.265.594-.282 1.219-.86z"/><text x="103.25" y="625.33" fill="#D9B8FF" font-family="Helvetica" font-size="17" textLength="104">azure_usage</text><path d="M8 639.339h262" style="stroke:#000d19;stroke-width:.5"/><text x="18" y="661.334" fill="#D9B8FF" font-family="sans-serif" font-size="14" font-weight="bold" textLength="108">current_value</text><text x="126" y="661.334" fill="#D9B8FF" font-family="sans-serif" font-size="14" textLength="44">: int64</text><text x="18" y="687.631" fill="#D9B8FF" font-family="sans-serif" font-size="14" font-weight="bold" textLength="32">limit</text><text x="50" y="687.631" fill="#D9B8FF" font-family="sans-serif" font-size="14" textLength="44">: int64</text><text x="18" y="713.928" fill="#D9B8FF" font-family="sans-serif" font-size="14" font-weight="bold" textLength="30">unit</text><text x="48" y="713.928" fill="#D9B8FF" font-family="sans-serif" font-size="14" textLength="48">: string</text><text x="18" y="740.225" fill="#D9B8FF" font-family="sans-serif" font-size="14" font-weight="bold" textLength="98">usage_name</text><text x="116" y="740.225" fill="#D9B8FF" font-family="sans-serif" font-size="14" textLength="144">: azure_usage_name</text><rect width="203" height="100.383" x="37.5" y="812.53" fill="#3D176E" rx="2.5" ry="2.5" style="stroke:#000d19;stroke-width:.5"/><circle cx="52.5" cy="832.424" r="11" fill="#ADD1B2" style="stroke:#181818;stroke-width:1"/><path d="M55.469 838.065q-.578.297-1.219.438-.64.156-1.344.156-2.5 0-3.828-1.64-1.312-1.657-1.312-4.782t1.312-4.781q1.328-1.657 3.828-1.657.703 0 1.344.157.656.156 1.219.453v2.719q-.625-.579-1.219-.844-.594-.281-1.219-.281-1.343 0-2.031 1.078-.687 1.062-.687 3.156t.687 3.172q.688 1.062 2.031 1.062.625 0 1.219-.265.594-.282 1.219-.86z"/><text x="71.5" y="838.31" fill="#D9B8FF" font-family="Helvetica" font-size="17" textLength="161">azure_usage_name</text><path d="M38.5 852.319h201" style="stroke:#000d19;stroke-width:.5"/><text x="48.5" y="874.314" fill="#D9B8FF" font-family="sans-serif" font-size="14" font-weight="bold" textLength="118">localized_value</text><text x="166.5" y="874.314" fill="#D9B8FF" font-family="sans-serif" font-size="14" textLength="48">: string</text><text x="48.5" y="900.611" fill="#D9B8FF" font-family="sans-serif" font-size="14" font-weight="bold" textLength="42">value</text><text x="90.5" y="900.611" fill="#D9B8FF" font-family="sans-serif" font-size="14" textLength="48">: string</text><rect width="198" height="39.789" x="40" y="438.76" fill="#3D176E" rx="2.5" ry="2.5" style="stroke:#000d19;stroke-width:.5"/><circle cx="55" cy="458.654" r="11" fill="#ADD1B2" style="stroke:#181818;stroke-width:1"/><path d="M57.969 464.295q-.578.297-1.219.438-.64.156-1.344.156-2.5 0-3.828-1.64-1.312-1.657-1.312-4.782t1.312-4.781q1.328-1.656 3.828-1.656.703 0 1.344.156.656.156 1.219.453v2.719q-.625-.579-1.219-.844-.594-.281-1.219-.281-1.343 0-2.031 1.078-.687 1.062-.687 3.156t.687 3.172q.688 1.062 2.031 1.062.625 0 1.219-.265.594-.281 1.219-.86z"/><text x="74" y="464.54" fill="#D9B8FF" font-family="Helvetica" font-size="17" textLength="156">phantom_resource</text><rect width="227" height="310.758" x="25.5" y="7" fill="#3D176E" rx="2.5" ry="2.5" style="stroke:#000d19;stroke-width:.5"/><circle cx="94.25" cy="26.895" r="11" fill="#ADD1B2" style="stroke:#181818;stroke-width:1"/><path d="M97.219 32.535q-.578.297-1.219.438-.64.156-1.344.156-2.5 0-3.828-1.64-1.312-1.657-1.312-4.782t1.312-4.781q1.328-1.656 3.828-1.656.703 0 1.344.156.656.156 1.219.453v2.719q-.625-.578-1.219-.844-.594-.281-1.219-.281-1.344 0-2.031 1.078-.687 1.062-.687 3.156t.687 3.172q.688 1.062 2.031 1.062.625 0 1.219-.265.594-.281 1.219-.86z"/><text x="119.75" y="32.78" fill="#D9B8FF" font-family="Helvetica" font-size="17" textLength="71">resource</text><path d="M26.5 46.789h225" style="stroke:#000d19;stroke-width:.5"/><text x="36.5" y="68.784" fill="#D9B8FF" font-family="sans-serif" font-size="14" font-weight="bold" textLength="29">age</text><text x="65.5" y="68.784" fill="#D9B8FF" font-family="sans-serif" font-size="14" textLength="66">: duration</text><text x="36.5" y="95.081" fill="#D9B8FF" font-family="sans-serif" font-size="14" font-weight="bold" textLength="43">atime</text><text x="79.5" y="95.081" fill="#D9B8FF" font-family="sans-serif" font-size="14" textLength="70">: datetime</text><text x="36.5" y="121.378" fill="#D9B8FF" font-family="sans-serif" font-size="14" font-weight="bold" textLength="43">ctime</text><text x="79.5" y="121.378" fill="#D9B8FF" font-family="sans-serif" font-size="14" textLength="70">: datetime</text><text x="36.5" y="147.675" fill="#D9B8FF" font-family="sans-serif" font-size="14" font-weight="bold" textLength="14">id</text><text x="50.5" y="147.675" fill="#D9B8FF" font-family="sans-serif" font-size="14" textLength="48">: string</text><text x="36.5" y="173.972" fill="#D9B8FF" font-family="sans-serif" font-size="14" font-weight="bold" textLength="33">kind</text><text x="69.5" y="173.972" fill="#D9B8FF" font-family="sans-serif" font-size="14" textLength="48">: string</text><text x="36.5" y="200.269" fill="#D9B8FF" font-family="sans-serif" font-size="14" font-weight="bold" textLength="90">last_access</text><text x="126.5" y="200.269" fill="#D9B8FF" font-family="sans-serif" font-size="14" textLength="66">: duration</text><text x="36.5" y="226.565" fill="#D9B8FF" font-family="sans-serif" font-size="14" font-weight="bold" textLength="90">last_update</text><text x="126.5" y="226.565" fill="#D9B8FF" font-family="sans-serif" font-size="14" textLength="66">: duration</text><text x="36.5" y="252.862" fill="#D9B8FF" font-family="sans-serif" font-size="14" font-weight="bold" textLength="48">mtime</text><text x="84.5" y="252.862" fill="#D9B8FF" font-family="sans-serif" font-size="14" textLength="70">: datetime</text><text x="36.5" y="279.159" fill="#D9B8FF" font-family="sans-serif" font-size="14" font-weight="bold" textLength="43">name</text><text x="79.5" y="279.159" fill="#D9B8FF" font-family="sans-serif" font-size="14" textLength="48">: string</text><text x="36.5" y="305.456" fill="#D9B8FF" font-family="sans-serif" font-size="14" font-weight="bold" textLength="34">tags</text><text x="70.5" y="305.456" fill="#D9B8FF" font-family="sans-serif" font-size="14" textLength="171">: dictionary[string, string]</text><path fill="none" d="M139 752.95v53.27" style="stroke:#ffaf37;stroke-width:2"/><path fill="#FFAF37" d="m139 812.22 4-9-4 4-4-4z" style="stroke:#ffaf37;stroke-width:2"/><path fill="none" d="M139 496.77v102.38m0-120.38-6 18h12zm0-142.93v102.84m0-120.84-6 18h12z" style="stroke:#ffaf37;stroke-width:2"/></svg>
